image/icon-percent.svg

<svg width="40" height="40" viewBox="0 0 40 40" fill="none" xmlns="http://www.w3.org/2000/svg">
<path d="M19.9939 37.0239L16.5229 39.9238L14.2349 36.0039L9.99487 37.5159L9.17285 33.0359L4.67987 32.991L5.41187 28.491L1.20386 26.8909L3.41388 22.925L-0.00012207 19.96L3.41187 16.9929L1.2019 13.0278L5.41089 11.428L4.67786 6.93286L9.17188 6.88892L9.9939 2.40894L14.2339 3.91992L16.5219 0L19.9929 2.8999L23.4639 0L25.7529 3.9209L29.9929 2.40894L30.8139 6.88989L35.3079 6.93481L34.5759 11.4299L38.7839 13.03L36.5739 16.9958L39.9859 19.9609L36.5739 22.928L38.7829 26.894L34.5739 28.4939L35.3069 32.988L30.8119 33.033L29.9909 37.5139L25.7529 36.0029L23.4639 39.9229L19.9939 37.0239ZM21.1999 35.541L22.9609 37.012L24.1219 35.022L24.9139 33.666L26.3819 34.189L28.5329 34.957L28.9499 32.6838L29.2349 31.1289L30.7959 31.113L33.0779 31.092L32.7059 28.8098L32.4519 27.25L33.9109 26.696L36.0449 25.8828L34.9249 23.873L34.1589 22.498L35.3419 21.4709L37.0759 19.9609L35.3429 18.4609L34.1599 17.4319L34.9259 16.0559L36.0469 14.0449L33.9129 13.2339L32.4539 12.6809L32.7089 11.1208L33.0809 8.83984L30.7989 8.81689L29.2389 8.80103L28.9539 7.24683L28.5379 4.97388L26.3859 5.74097L24.9179 6.26392L24.1249 4.90698L22.9629 2.91699L21.2009 4.38794L19.9958 5.39282L18.7909 4.38794L17.0299 2.91699L15.8689 4.90601L15.0769 6.26294L13.6078 5.73999L11.4579 4.97192L11.0399 7.24585L10.7549 8.80005L9.19489 8.81592L6.91388 8.83789L7.28589 11.1199L7.53986 12.678L6.08087 13.2329L3.94586 14.0439L5.06689 16.0549L5.83289 17.4299L4.6499 18.459L2.91589 19.967L4.64886 21.4739L5.83185 22.5029L5.06586 23.8779L3.94489 25.8879L6.07788 26.698L7.5379 27.2529L7.2829 28.812L6.91187 31.0959L9.19287 31.1189L10.7529 31.135L11.0379 32.6899L11.4549 34.9619L13.6069 34.1948L15.0759 33.6719L15.8679 35.0288L17.0299 37.019L18.7909 35.5479L19.9958 34.543L21.1999 35.541ZM21.3179 23.02C21.3179 20.093 22.8829 18.4648 24.7769 18.4648C26.7829 18.4648 28.0769 20.0279 28.0769 22.7949C28.0769 25.8539 26.4919 27.3718 24.6619 27.3718C22.8829 27.3718 21.3379 25.922 21.3179 23.02ZM22.8389 22.9319C22.8159 24.7829 23.5209 26.1899 24.7109 26.1899C25.9879 26.1899 26.5609 24.8049 26.5609 22.8899C26.5609 21.1249 26.0539 19.6528 24.7109 19.6528C23.4999 19.6488 22.8389 21.1029 22.8389 22.9309V22.9319ZM15.1938 27.332L23.6089 12.613H24.8419L16.4269 27.332H15.1938ZM11.9789 16.99C11.9789 14.09 13.5419 12.458 15.4369 12.458C17.4369 12.458 18.7629 14.022 18.7629 16.79C18.7629 19.848 17.1769 21.365 15.3269 21.365C13.5439 21.365 11.9999 19.915 11.9789 16.991V16.99ZM13.5209 16.9238C13.4769 18.7748 14.1618 20.1809 15.3708 20.1829C16.6479 20.1829 17.2209 18.7988 17.2209 16.8828C17.2209 15.1168 16.7139 13.645 15.3708 13.645C14.1618 13.642 13.5209 15.092 13.5209 16.925V16.9238Z" fill="#F16D7F"/>
</svg>

<svg width="40" height="40" fill="none" xmlns="http://www.w3.org/2000/svg"><path d="m19.994 37.024-3.471 2.9-2.288-3.92-4.24 1.512-.822-4.48-4.493-.045.732-4.5-4.208-1.6 2.21-3.966L0 19.96l3.412-2.967-2.21-3.965 4.209-1.6-.733-4.495 4.494-.044.822-4.48 4.24 1.51L16.522 0l3.47 2.9L23.465 0l2.289 3.92 4.24-1.511.82 4.48 4.495.046-.732 4.495 4.208 1.6-2.21 3.966 3.412 2.965-3.412 2.967 2.209 3.966-4.21 1.6.734 4.494-4.495.045-.821 4.48-4.238-1.51-2.29 3.92-3.47-2.9ZM21.2 35.54l1.76 1.471 1.162-1.99.792-1.356 1.468.523 2.15.768.418-2.273.285-1.555 1.56-.016 2.283-.021-.372-2.282-.254-1.56 1.459-.554 2.134-.813-1.12-2.01-.766-1.375 1.183-1.027 1.734-1.51-1.733-1.5-1.183-1.03.766-1.375 1.12-2.011-2.133-.811-1.46-.553.256-1.56.372-2.281-2.282-.023-1.56-.016-.285-1.554-.416-2.273-2.152.767-1.468.523-.793-1.357-1.162-1.99-1.762 1.47-1.205 1.006-1.205-1.005-1.761-1.471-1.161 1.989-.792 1.357-1.47-.523-2.15-.768-.417 2.274-.285 1.554-1.56.016-2.281.022.372 2.282.254 1.558-1.46.555-2.134.81 1.12 2.012.767 1.375-1.183 1.029-1.734 1.508 1.733 1.507 1.183 1.029-.766 1.375-1.121 2.01 2.133.81 1.46.555-.255 1.559-.371 2.284 2.28.023 1.56.016.286 1.555.417 2.272 2.152-.767 1.469-.523.792 1.357 1.162 1.99 1.76-1.471 1.206-1.005 1.204.998Zm.118-12.521c0-2.927 1.565-4.555 3.459-4.555 2.006 0 3.3 1.563 3.3 4.33 0 3.059-1.585 4.577-3.415 4.577-1.78 0-3.324-1.45-3.344-4.352Zm1.52-.088c-.022 1.85.683 3.258 1.873 3.258 1.277 0 1.85-1.385 1.85-3.3 0-1.765-.507-3.237-1.85-3.237-1.211-.004-1.872 1.45-1.872 3.278Zm-7.644 4.4 8.415-14.719h1.233l-8.415 14.719h-1.233ZM11.979 16.99c0-2.9 1.563-4.532 3.458-4.532 2 0 3.326 1.564 3.326 4.332 0 3.058-1.586 4.575-3.436 4.575-1.783 0-3.327-1.45-3.348-4.374v-.001Zm1.542-.066c-.044 1.85.64 3.257 1.85 3.259 1.277 0 1.85-1.384 1.85-3.3 0-1.766-.507-3.238-1.85-3.238-1.21-.003-1.85 1.447-1.85 3.28v-.001Z" fill="#F16D7F"/></svg>
